X: 15232
T: Girl I Left Behind Me, The
R: polka
M: 2/4
K: Gmajor
|:g/f/|ed/c/ BA|BG ED|GG G/A/B/c/|d2 Bg/f/|
ed/c/ BA|BG EG|F/G/A DE/F/|G2 G:|
dc|BB/c/ de/f/|gd/c/ B/A/G|B/c/d ef|g2 fg/f/|
ed/c/ BA|BG EG|F/G/A DE/F/|G2 G:|

